X:697
T:Planxty Madam Crofton
R:
C:O'Carolan
B:O'Neill's 697
N:"Spirited"
N:There appears to be a missing repeat mark at the end.
D:
Z: 1997 by John Chambers <jc@trillian.mit.edu>
M:C
L:1/8
K:Em
egfe dz Bz|cBAc Bz Az|BGAF GEFD|EFGA B2-Bz|
|Bede fz fz|edcB gz gz|agfg az az|baga bz bz|
|bc'ad' e'bc'b|abga fgaf|gbac' bd'e'c'|b2~ag g2za|
|gc'ba gagf|egfe dz Bz|cBAc BdeB|AGG~FE E2Ez :|
|: Bz Az Gz Fz|EFGA B2Bz|Bedf egfa|gab3a g2za|
|gbz gb2 BGEG|bd'z bd'2 dBGB|faz fa2 AFDF|gfef d2ze|
|dz b2 agfe|dz b2 agfe|dcBd eBGB|AGFE E2z2|]
